images/62491.svg

<?xml version="1.0" encoding="UTF-8"?>
<svg xmlns="http://www.w3.org/2000/svg" xmlns:xlink="http://www.w3.org/1999/xlink" width="300pt" height="300pt" viewBox="0 0 300 300" version="1.1">
<defs>
<g>
<symbol overflow="visible" id="glyph0-0">
<path style="stroke:none;" d="M 0.453125 1.59375 L 0.453125 -6.34375 L 4.953125 -6.34375 L 4.953125 1.59375 Z M 0.953125 1.09375 L 4.453125 1.09375 L 4.453125 -5.84375 L 0.953125 -5.84375 Z M 0.953125 1.09375 "/>
</symbol>
<symbol overflow="visible" id="glyph0-1">
<path style="stroke:none;" d="M 0.890625 -6.5625 L 4.65625 -6.5625 L 4.65625 -5.8125 L 1.765625 -5.8125 L 1.765625 -3.875 L 4.375 -3.875 L 4.375 -3.140625 L 1.765625 -3.140625 L 1.765625 0 L 0.890625 0 Z M 0.890625 -6.5625 "/>
</symbol>
<symbol overflow="visible" id="glyph0-2">
<path style="stroke:none;" d="M 0.890625 -6.5625 L 2.078125 -6.5625 L 4.984375 -1.078125 L 4.984375 -6.5625 L 5.84375 -6.5625 L 5.84375 0 L 4.65625 0 L 1.75 -5.484375 L 1.75 0 L 0.890625 0 Z M 0.890625 -6.5625 "/>
</symbol>
<symbol overflow="visible" id="glyph0-3">
<path style="stroke:none;" d="M 0.890625 -6.5625 L 1.765625 -6.5625 L 1.765625 -3.875 L 5 -3.875 L 5 -6.5625 L 5.890625 -6.5625 L 5.890625 0 L 5 0 L 5 -3.125 L 1.765625 -3.125 L 1.765625 0 L 0.890625 0 Z M 0.890625 -6.5625 "/>
</symbol>
<symbol overflow="visible" id="glyph0-4">
<path style="stroke:none;" d="M 3.546875 -5.953125 C 2.898438 -5.953125 2.382812 -5.710938 2 -5.234375 C 1.625 -4.753906 1.4375 -4.101562 1.4375 -3.28125 C 1.4375 -2.445312 1.625 -1.789062 2 -1.3125 C 2.382812 -0.832031 2.898438 -0.59375 3.546875 -0.59375 C 4.191406 -0.59375 4.703125 -0.832031 5.078125 -1.3125 C 5.453125 -1.789062 5.640625 -2.445312 5.640625 -3.28125 C 5.640625 -4.101562 5.453125 -4.753906 5.078125 -5.234375 C 4.703125 -5.710938 4.191406 -5.953125 3.546875 -5.953125 Z M 3.546875 -6.6875 C 4.460938 -6.6875 5.195312 -6.375 5.75 -5.75 C 6.300781 -5.132812 6.578125 -4.3125 6.578125 -3.28125 C 6.578125 -2.238281 6.300781 -1.410156 5.75 -0.796875 C 5.195312 -0.179688 4.460938 0.125 3.546875 0.125 C 2.617188 0.125 1.878906 -0.179688 1.328125 -0.796875 C 0.773438 -1.410156 0.5 -2.238281 0.5 -3.28125 C 0.5 -4.3125 0.773438 -5.132812 1.328125 -5.75 C 1.878906 -6.375 2.617188 -6.6875 3.546875 -6.6875 Z M 3.546875 -6.6875 "/>
</symbol>
</g>
</defs>
<g id="surface25113">
<rect x="0" y="0" width="300" height="300" style="fill:rgb(100%,100%,100%);fill-opacity:1;stroke:none;"/>
<path style="fill:none;stroke-width:1.2;stroke-linecap:butt;stroke-linejoin:miter;stroke:rgb(20%,80%,80%);stroke-opacity:1;stroke-miterlimit:10;" d="M 35.25 153.683594 L 43.710938 156.429688 "/>
<path style="fill:none;stroke-width:1.2;stroke-linecap:butt;stroke-linejoin:miter;stroke:rgb(0%,0%,0%);stroke-opacity:1;stroke-miterlimit:10;" d="M 43.710938 156.429688 L 52.171875 159.179688 "/>
<path style=" stroke:none;fill-rule:nonzero;fill:rgb(100%,100%,100%);fill-opacity:1;" d="M 29.25 148.183594 L 35.25 148.183594 L 35.25 159.183594 L 29.25 159.183594 Z M 29.25 148.183594 "/>
<g style="fill:rgb(20%,80%,80%);fill-opacity:1;">
  <use xlink:href="#glyph0-1" x="29.25" y="156.84668"/>
</g>
<path style="fill:none;stroke-width:1.2;stroke-linecap:butt;stroke-linejoin:miter;stroke:rgb(0%,0%,0%);stroke-opacity:1;stroke-miterlimit:10;" d="M 52.171875 159.179688 L 54.917969 150.71875 "/>
<path style="fill:none;stroke-width:1.2;stroke-linecap:butt;stroke-linejoin:miter;stroke:rgb(20%,80%,80%);stroke-opacity:1;stroke-miterlimit:10;" d="M 54.917969 150.71875 L 57.664062 142.257812 "/>
<path style="fill:none;stroke-width:1.2;stroke-linecap:butt;stroke-linejoin:miter;stroke:rgb(0%,0%,0%);stroke-opacity:1;stroke-miterlimit:10;" d="M 52.171875 159.179688 L 49.425781 167.640625 "/>
<path style="fill:none;stroke-width:1.2;stroke-linecap:butt;stroke-linejoin:miter;stroke:rgb(20%,80%,80%);stroke-opacity:1;stroke-miterlimit:10;" d="M 49.425781 167.640625 L 46.679688 176.101562 "/>
<path style="fill:none;stroke-width:1.2;stroke-linecap:butt;stroke-linejoin:miter;stroke:rgb(0%,0%,0%);stroke-opacity:1;stroke-miterlimit:10;" d="M 52.171875 159.179688 L 69.09375 164.671875 "/>
<path style=" stroke:none;fill-rule:nonzero;fill:rgb(100%,100%,100%);fill-opacity:1;" d="M 54.664062 136.757812 L 60.664062 136.757812 L 60.664062 147.757812 L 54.664062 147.757812 Z M 54.664062 136.757812 "/>
<g style="fill:rgb(20%,80%,80%);fill-opacity:1;">
  <use xlink:href="#glyph0-1" x="54.664062" y="145.420898"/>
</g>
<path style=" stroke:none;fill-rule:nonzero;fill:rgb(100%,100%,100%);fill-opacity:1;" d="M 40.679688 170.601562 L 46.679688 170.601562 L 46.679688 181.601562 L 40.679688 181.601562 Z M 40.679688 170.601562 "/>
<g style="fill:rgb(20%,80%,80%);fill-opacity:1;">
  <use xlink:href="#glyph0-1" x="40.679688" y="179.264648"/>
</g>
<path style="fill:none;stroke-width:1.2;stroke-linecap:butt;stroke-linejoin:miter;stroke:rgb(0%,0%,0%);stroke-opacity:1;stroke-miterlimit:10;" d="M 69.09375 164.671875 L 82.3125 152.761719 "/>
<path style="fill:none;stroke-width:1.2;stroke-linecap:butt;stroke-linejoin:miter;stroke:rgb(0%,0%,0%);stroke-opacity:1;stroke-miterlimit:10;" d="M 73.21875 166.589844 L 83.792969 157.066406 "/>
<path style="fill:none;stroke-width:1.2;stroke-linecap:butt;stroke-linejoin:miter;stroke:rgb(0%,0%,0%);stroke-opacity:1;stroke-miterlimit:10;" d="M 72.796875 182.074219 L 69.09375 164.671875 "/>
<path style="fill:none;stroke-width:1.2;stroke-linecap:butt;stroke-linejoin:miter;stroke:rgb(0%,0%,0%);stroke-opacity:1;stroke-miterlimit:10;" d="M 82.3125 152.761719 L 99.234375 158.257812 "/>
<path style="fill:none;stroke-width:1.2;stroke-linecap:butt;stroke-linejoin:miter;stroke:rgb(0%,0%,0%);stroke-opacity:1;stroke-miterlimit:10;" d="M 99.234375 158.257812 L 105.84375 152.304688 "/>
<path style="fill:none;stroke-width:1.2;stroke-linecap:butt;stroke-linejoin:miter;stroke:rgb(0%,0%,100%);stroke-opacity:1;stroke-miterlimit:10;" d="M 105.84375 152.304688 L 112.453125 146.347656 "/>
<path style="fill:none;stroke-width:1.2;stroke-linecap:butt;stroke-linejoin:miter;stroke:rgb(0%,0%,0%);stroke-opacity:1;stroke-miterlimit:10;" d="M 99.234375 158.257812 L 102.9375 175.660156 "/>
<path style="fill:none;stroke-width:1.2;stroke-linecap:butt;stroke-linejoin:miter;stroke:rgb(0%,0%,0%);stroke-opacity:1;stroke-miterlimit:10;" d="M 95.511719 160.867188 L 98.472656 174.789062 "/>
<path style="fill:none;stroke-width:1.2;stroke-linecap:butt;stroke-linejoin:miter;stroke:rgb(0%,0%,100%);stroke-opacity:1;stroke-miterlimit:10;" d="M 112.453125 146.347656 L 120.914062 149.09375 "/>
<path style="fill:none;stroke-width:1.2;stroke-linecap:butt;stroke-linejoin:miter;stroke:rgb(0%,0%,0%);stroke-opacity:1;stroke-miterlimit:10;" d="M 120.914062 149.09375 L 129.375 151.84375 "/>
<path style=" stroke:none;fill-rule:nonzero;fill:rgb(100%,100%,100%);fill-opacity:1;" d="M 105.453125 140.847656 L 119.453125 140.847656 L 119.453125 151.847656 L 105.453125 151.847656 Z M 105.453125 140.847656 "/>
<g style="fill:rgb(0%,0%,100%);fill-opacity:1;">
  <use xlink:href="#glyph0-2" x="105.453125" y="149.510742"/>
  <use xlink:href="#glyph0-3" x="112.430664" y="149.510742"/>
</g>
<path style="fill:none;stroke-width:1.2;stroke-linecap:butt;stroke-linejoin:miter;stroke:rgb(0%,0%,0%);stroke-opacity:1;stroke-miterlimit:10;" d="M 127.328125 152.277344 L 129.179688 160.980469 "/>
<path style="fill:none;stroke-width:1.2;stroke-linecap:butt;stroke-linejoin:miter;stroke:rgb(100%,0%,0%);stroke-opacity:1;stroke-miterlimit:10;" d="M 129.179688 160.980469 L 131.03125 169.679688 "/>
<path style="fill:none;stroke-width:1.2;stroke-linecap:butt;stroke-linejoin:miter;stroke:rgb(0%,0%,0%);stroke-opacity:1;stroke-miterlimit:10;" d="M 131.421875 151.40625 L 133.273438 160.105469 "/>
<path style="fill:none;stroke-width:1.2;stroke-linecap:butt;stroke-linejoin:miter;stroke:rgb(100%,0%,0%);stroke-opacity:1;stroke-miterlimit:10;" d="M 133.273438 160.105469 L 135.125 168.808594 "/>
<path style="fill:none;stroke-width:1.2;stroke-linecap:butt;stroke-linejoin:miter;stroke:rgb(0%,0%,0%);stroke-opacity:1;stroke-miterlimit:10;" d="M 129.375 151.84375 L 142.59375 139.933594 "/>
<path style=" stroke:none;fill-rule:nonzero;fill:rgb(100%,100%,100%);fill-opacity:1;" d="M 129.078125 163.742188 L 137.078125 163.742188 L 137.078125 174.742188 L 129.078125 174.742188 Z M 129.078125 163.742188 "/>
<g style="fill:rgb(100%,0%,0%);fill-opacity:1;">
  <use xlink:href="#glyph0-4" x="129.078125" y="172.405273"/>
</g>
<path style="fill:none;stroke-width:1.2;stroke-linecap:butt;stroke-linejoin:miter;stroke:rgb(0%,0%,0%);stroke-opacity:1;stroke-miterlimit:10;" d="M 142.59375 139.933594 L 159.515625 145.425781 "/>
<path style="fill:none;stroke-width:1.2;stroke-linecap:butt;stroke-linejoin:miter;stroke:rgb(0%,0%,0%);stroke-opacity:1;stroke-miterlimit:10;" d="M 145.578125 136.503906 L 159.117188 140.898438 "/>
<path style="fill:none;stroke-width:1.2;stroke-linecap:butt;stroke-linejoin:miter;stroke:rgb(0%,0%,0%);stroke-opacity:1;stroke-miterlimit:10;" d="M 138.890625 122.53125 L 142.59375 139.933594 "/>
<path style="fill:none;stroke-width:1.2;stroke-linecap:butt;stroke-linejoin:miter;stroke:rgb(0%,0%,0%);stroke-opacity:1;stroke-miterlimit:10;" d="M 159.515625 145.425781 L 172.734375 133.519531 "/>
<path style="fill:none;stroke-width:1.2;stroke-linecap:butt;stroke-linejoin:miter;stroke:rgb(0%,0%,0%);stroke-opacity:1;stroke-miterlimit:10;" d="M 172.734375 133.519531 L 189.65625 139.011719 "/>
<path style="fill:none;stroke-width:1.2;stroke-linecap:butt;stroke-linejoin:miter;stroke:rgb(0%,0%,0%);stroke-opacity:1;stroke-miterlimit:10;" d="M 172.734375 133.519531 L 169.03125 116.117188 "/>
<path style="fill:none;stroke-width:1.2;stroke-linecap:butt;stroke-linejoin:miter;stroke:rgb(0%,0%,0%);stroke-opacity:1;stroke-miterlimit:10;" d="M 168.269531 132.652344 L 165.304688 118.730469 "/>
<path style="fill:none;stroke-width:1.2;stroke-linecap:butt;stroke-linejoin:miter;stroke:rgb(0%,0%,0%);stroke-opacity:1;stroke-miterlimit:10;" d="M 189.65625 139.011719 L 193.359375 156.414062 "/>
<path style="fill:none;stroke-width:1.2;stroke-linecap:butt;stroke-linejoin:miter;stroke:rgb(0%,0%,0%);stroke-opacity:1;stroke-miterlimit:10;" d="M 194.121094 139.882812 L 197.082031 153.804688 "/>
<path style="fill:none;stroke-width:1.2;stroke-linecap:butt;stroke-linejoin:miter;stroke:rgb(0%,0%,0%);stroke-opacity:1;stroke-miterlimit:10;" d="M 202.875 127.105469 L 189.65625 139.011719 "/>
<path style="fill:none;stroke-width:1.2;stroke-linecap:butt;stroke-linejoin:miter;stroke:rgb(0%,0%,0%);stroke-opacity:1;stroke-miterlimit:10;" d="M 193.359375 156.414062 L 210.28125 161.90625 "/>
<path style="fill:none;stroke-width:1.2;stroke-linecap:butt;stroke-linejoin:miter;stroke:rgb(0%,0%,0%);stroke-opacity:1;stroke-miterlimit:10;" d="M 210.28125 161.90625 L 223.5 150 "/>
<path style="fill:none;stroke-width:1.2;stroke-linecap:butt;stroke-linejoin:miter;stroke:rgb(0%,0%,0%);stroke-opacity:1;stroke-miterlimit:10;" d="M 214.40625 163.828125 L 224.980469 154.300781 "/>
<path style="fill:none;stroke-width:1.2;stroke-linecap:butt;stroke-linejoin:miter;stroke:rgb(0%,0%,0%);stroke-opacity:1;stroke-miterlimit:10;" d="M 213.984375 179.308594 L 210.28125 161.90625 "/>
<path style="fill:none;stroke-width:1.2;stroke-linecap:butt;stroke-linejoin:miter;stroke:rgb(0%,0%,0%);stroke-opacity:1;stroke-miterlimit:10;" d="M 223.5 150 L 231.960938 152.746094 "/>
<path style="fill:none;stroke-width:1.2;stroke-linecap:butt;stroke-linejoin:miter;stroke:rgb(0%,0%,100%);stroke-opacity:1;stroke-miterlimit:10;" d="M 231.960938 152.746094 L 240.421875 155.492188 "/>
<path style="fill:none;stroke-width:1.2;stroke-linecap:butt;stroke-linejoin:miter;stroke:rgb(0%,0%,0%);stroke-opacity:1;stroke-miterlimit:10;" d="M 223.5 150 L 219.796875 132.597656 "/>
<path style="fill:none;stroke-width:1.2;stroke-linecap:butt;stroke-linejoin:miter;stroke:rgb(0%,0%,100%);stroke-opacity:1;stroke-miterlimit:10;" d="M 240.421875 155.492188 L 242.273438 164.195312 "/>
<path style="fill:none;stroke-width:1.2;stroke-linecap:butt;stroke-linejoin:miter;stroke:rgb(0%,0%,0%);stroke-opacity:1;stroke-miterlimit:10;" d="M 242.273438 164.195312 L 244.125 172.894531 "/>
<path style="fill:none;stroke-width:1.2;stroke-linecap:butt;stroke-linejoin:miter;stroke:rgb(0%,0%,100%);stroke-opacity:1;stroke-miterlimit:10;" d="M 236.695312 158.105469 L 238.179688 165.066406 "/>
<path style="fill:none;stroke-width:1.2;stroke-linecap:butt;stroke-linejoin:miter;stroke:rgb(0%,0%,0%);stroke-opacity:1;stroke-miterlimit:10;" d="M 238.179688 165.066406 L 239.660156 172.027344 "/>
<path style=" stroke:none;fill-rule:nonzero;fill:rgb(100%,100%,100%);fill-opacity:1;" d="M 237.421875 149.992188 L 244.421875 149.992188 L 244.421875 160.992188 L 237.421875 160.992188 Z M 237.421875 149.992188 "/>
<g style="fill:rgb(0%,0%,100%);fill-opacity:1;">
  <use xlink:href="#glyph0-2" x="237.421875" y="158.655273"/>
</g>
<path style="fill:none;stroke-width:1.2;stroke-linecap:butt;stroke-linejoin:miter;stroke:rgb(0%,0%,0%);stroke-opacity:1;stroke-miterlimit:10;" d="M 244.125 172.894531 L 237.515625 178.847656 "/>
<path style="fill:none;stroke-width:1.2;stroke-linecap:butt;stroke-linejoin:miter;stroke:rgb(0%,0%,100%);stroke-opacity:1;stroke-miterlimit:10;" d="M 237.515625 178.847656 L 230.90625 184.804688 "/>
<path style="fill:none;stroke-width:1.2;stroke-linecap:butt;stroke-linejoin:miter;stroke:rgb(0%,0%,0%);stroke-opacity:1;stroke-miterlimit:10;" d="M 244.125 172.894531 L 252.585938 175.640625 "/>
<path style="fill:none;stroke-width:1.2;stroke-linecap:butt;stroke-linejoin:miter;stroke:rgb(0%,0%,100%);stroke-opacity:1;stroke-miterlimit:10;" d="M 252.585938 175.640625 L 261.046875 178.386719 "/>
<path style="fill:none;stroke-width:1.2;stroke-linecap:butt;stroke-linejoin:miter;stroke:rgb(0%,0%,100%);stroke-opacity:1;stroke-miterlimit:10;" d="M 230.90625 184.804688 L 222.445312 182.054688 "/>
<path style="fill:none;stroke-width:1.2;stroke-linecap:butt;stroke-linejoin:miter;stroke:rgb(0%,0%,0%);stroke-opacity:1;stroke-miterlimit:10;" d="M 222.445312 182.054688 L 213.984375 179.308594 "/>
<path style="fill:none;stroke-width:1.2;stroke-linecap:butt;stroke-linejoin:miter;stroke:rgb(0%,0%,100%);stroke-opacity:1;stroke-miterlimit:10;" d="M 230.507812 180.273438 L 223.738281 178.074219 "/>
<path style="fill:none;stroke-width:1.2;stroke-linecap:butt;stroke-linejoin:miter;stroke:rgb(0%,0%,0%);stroke-opacity:1;stroke-miterlimit:10;" d="M 223.738281 178.074219 L 216.96875 175.878906 "/>
<path style=" stroke:none;fill-rule:nonzero;fill:rgb(100%,100%,100%);fill-opacity:1;" d="M 227.90625 179.304688 L 234.90625 179.304688 L 234.90625 190.304688 L 227.90625 190.304688 Z M 227.90625 179.304688 "/>
<g style="fill:rgb(0%,0%,100%);fill-opacity:1;">
  <use xlink:href="#glyph0-2" x="227.90625" y="187.967773"/>
</g>
<path style="fill:none;stroke-width:1.2;stroke-linecap:butt;stroke-linejoin:miter;stroke:rgb(0%,0%,100%);stroke-opacity:1;stroke-miterlimit:10;" d="M 261.046875 178.386719 L 262.898438 187.089844 "/>
<path style="fill:none;stroke-width:1.2;stroke-linecap:butt;stroke-linejoin:miter;stroke:rgb(0%,0%,0%);stroke-opacity:1;stroke-miterlimit:10;" d="M 262.898438 187.089844 L 264.75 195.789062 "/>
<path style=" stroke:none;fill-rule:nonzero;fill:rgb(100%,100%,100%);fill-opacity:1;" d="M 254.046875 172.886719 L 268.046875 172.886719 L 268.046875 183.886719 L 254.046875 183.886719 Z M 254.046875 172.886719 "/>
<g style="fill:rgb(0%,0%,100%);fill-opacity:1;">
  <use xlink:href="#glyph0-2" x="254.046875" y="181.549805"/>
  <use xlink:href="#glyph0-3" x="261.024414" y="181.549805"/>
</g>
<path style="fill:none;stroke-width:1.2;stroke-linecap:butt;stroke-linejoin:miter;stroke:rgb(0%,0%,0%);stroke-opacity:1;stroke-miterlimit:10;" d="M 219.796875 132.597656 L 202.875 127.105469 "/>
<path style="fill:none;stroke-width:1.2;stroke-linecap:butt;stroke-linejoin:miter;stroke:rgb(0%,0%,0%);stroke-opacity:1;stroke-miterlimit:10;" d="M 216.8125 136.03125 L 203.273438 131.636719 "/>
<path style="fill:none;stroke-width:1.2;stroke-linecap:butt;stroke-linejoin:miter;stroke:rgb(0%,0%,0%);stroke-opacity:1;stroke-miterlimit:10;" d="M 169.03125 116.117188 L 152.109375 110.625 "/>
<path style="fill:none;stroke-width:1.2;stroke-linecap:butt;stroke-linejoin:miter;stroke:rgb(0%,0%,0%);stroke-opacity:1;stroke-miterlimit:10;" d="M 169.03125 116.117188 L 182.25 104.210938 "/>
<path style="fill:none;stroke-width:1.2;stroke-linecap:butt;stroke-linejoin:miter;stroke:rgb(0%,0%,0%);stroke-opacity:1;stroke-miterlimit:10;" d="M 152.109375 110.625 L 138.890625 122.53125 "/>
<path style="fill:none;stroke-width:1.2;stroke-linecap:butt;stroke-linejoin:miter;stroke:rgb(0%,0%,0%);stroke-opacity:1;stroke-miterlimit:10;" d="M 153.589844 114.925781 L 143.011719 124.453125 "/>
<path style="fill:none;stroke-width:1.2;stroke-linecap:butt;stroke-linejoin:miter;stroke:rgb(0%,0%,0%);stroke-opacity:1;stroke-miterlimit:10;" d="M 102.9375 175.660156 L 89.71875 187.566406 "/>
<path style="fill:none;stroke-width:1.2;stroke-linecap:butt;stroke-linejoin:miter;stroke:rgb(0%,0%,0%);stroke-opacity:1;stroke-miterlimit:10;" d="M 89.71875 187.566406 L 72.796875 182.074219 "/>
<path style="fill:none;stroke-width:1.2;stroke-linecap:butt;stroke-linejoin:miter;stroke:rgb(0%,0%,0%);stroke-opacity:1;stroke-miterlimit:10;" d="M 89.320312 183.035156 L 75.78125 178.640625 "/>
</g>
</svg>

<svg xmlns="http://www.w3.org/2000/svg" xmlns:xlink="http://www.w3.org/1999/xlink" width="300pt" height="300pt" viewBox="0 0 300 300"><defs><symbol overflow="visible"><path d="M.453 1.594v-7.938h4.5v7.938zm.5-.5h3.5v-6.938h-3.5zm0 0"/></symbol><symbol overflow="visible" id="a"><path d="M.89-6.563h3.766v.75h-2.89v1.938h2.61v.734h-2.61V0H.89zm0 0"/></symbol><symbol overflow="visible" id="b"><path d="M.89-6.563H2.08l2.906 5.485v-5.484h.86V0H4.656L1.75-5.484V0H.89zm0 0"/></symbol><symbol overflow="visible" id="c"><path d="M.89-6.563h.876v2.688H5v-2.688h.89V0H5v-3.125H1.766V0H.89zm0 0"/></symbol><symbol overflow="visible" id="d"><path d="M3.547-5.953c-.65 0-1.164.242-1.547.72-.375.48-.563 1.13-.563 1.952 0 .835.188 1.49.563 1.967.383.48.898.72 1.547.72.644 0 1.156-.24 1.53-.72.376-.476.564-1.132.564-1.968 0-.822-.187-1.474-.562-1.954-.375-.477-.887-.72-1.53-.72zm0-.734c.914 0 1.648.312 2.203.937.55.617.828 1.438.828 2.47 0 1.042-.277 1.87-.828 2.483-.555.617-1.29.922-2.203.922-.93 0-1.668-.305-2.22-.922C.774-1.41.5-2.237.5-3.28c0-1.033.273-1.853.828-2.47.55-.625 1.29-.938 2.22-.938zm0 0"/></symbol></defs><g><path fill="#fff" d="M0 0h300v300H0z"/><path d="M35.25 153.684l8.46 2.746" stroke-width="1.2" stroke="#3cc" stroke-miterlimit="10" fill="none"/><path d="M43.71 156.43l8.462 2.75" stroke-width="1.2" stroke="#000" stroke-miterlimit="10" fill="none"/><path d="M29.25 148.184h6v11h-6zm0 0" fill="#fff"/><use xlink:href="#a" x="29.25" y="156.847" fill="#3cc"/><path d="M52.172 159.18l2.746-8.46" stroke-width="1.2" stroke="#000" stroke-miterlimit="10" fill="none"/><path d="M54.918 150.72l2.746-8.462" stroke-width="1.2" stroke="#3cc" stroke-miterlimit="10" fill="none"/><path d="M52.172 159.18l-2.746 8.46" stroke-width="1.2" stroke="#000" stroke-miterlimit="10" fill="none"/><path d="M49.426 167.64l-2.746 8.462" stroke-width="1.2" stroke="#3cc" stroke-miterlimit="10" fill="none"/><path d="M52.172 159.18l16.922 5.492" stroke-width="1.2" stroke="#000" stroke-miterlimit="10" fill="none"/><path d="M54.664 136.758h6v11h-6zm0 0" fill="#fff"/><use xlink:href="#a" x="54.664" y="145.421" fill="#3cc"/><path d="M40.68 170.602h6v11h-6zm0 0" fill="#fff"/><use xlink:href="#a" x="40.68" y="179.265" fill="#3cc"/><path d="M69.094 164.672l13.22-11.91M73.22 166.59l10.573-9.524M72.797 182.074l-3.703-17.402M82.313 152.762l16.92 5.496M99.234 158.258l6.61-5.953" stroke-width="1.2" stroke="#000" stroke-miterlimit="10" fill="none"/><path d="M105.844 152.305l6.61-5.957" stroke-width="1.2" stroke="#00f" stroke-miterlimit="10" fill="none"/><path d="M99.234 158.258l3.704 17.402M95.512 160.867l2.96 13.922" stroke-width="1.2" stroke="#000" stroke-miterlimit="10" fill="none"/><path d="M112.453 146.348l8.46 2.746" stroke-width="1.2" stroke="#00f" stroke-miterlimit="10" fill="none"/><path d="M120.914 149.094l8.46 2.75" stroke-width="1.2" stroke="#000" stroke-miterlimit="10" fill="none"/><path d="M105.453 140.848h14v11h-14zm0 0" fill="#fff"/><g fill="#00f"><use xlink:href="#b" x="105.453" y="149.511"/><use xlink:href="#c" x="112.431" y="149.511"/></g><path d="M127.328 152.277l1.852 8.703" stroke-width="1.2" stroke="#000" stroke-miterlimit="10" fill="none"/><path d="M129.18 160.98l1.85 8.7" stroke-width="1.2" stroke="#f00" stroke-miterlimit="10" fill="none"/><path d="M131.422 151.406l1.85 8.7" stroke-width="1.2" stroke="#000" stroke-miterlimit="10" fill="none"/><path d="M133.273 160.105l1.852 8.704" stroke-width="1.2" stroke="#f00" stroke-miterlimit="10" fill="none"/><path d="M129.375 151.844l13.22-11.91" stroke-width="1.2" stroke="#000" stroke-miterlimit="10" fill="none"/><path d="M129.078 163.742h8v11h-8zm0 0" fill="#fff"/><use xlink:href="#d" x="129.078" y="172.405" fill="#f00"/><path d="M142.594 139.934l16.922 5.492M145.578 136.504l13.54 4.394M138.89 122.53l3.704 17.404M159.516 145.426l13.218-11.906M172.734 133.52l16.922 5.492M172.734 133.52l-3.703-17.403M168.27 132.652l-2.965-13.922M189.656 139.012l3.703 17.402M194.12 139.883l2.962 13.922M202.875 127.105l-13.22 11.907M193.36 156.414l16.92 5.492M210.28 161.906L223.5 150M214.406 163.828l10.574-9.527M213.984 179.31l-3.703-17.404M223.5 150l8.46 2.746" stroke-width="1.2" stroke="#000" stroke-miterlimit="10" fill="none"/><path d="M231.96 152.746l8.462 2.746" stroke-width="1.2" stroke="#00f" stroke-miterlimit="10" fill="none"/><path d="M223.5 150l-3.703-17.402" stroke-width="1.2" stroke="#000" stroke-miterlimit="10" fill="none"/><path d="M240.422 155.492l1.85 8.703" stroke-width="1.2" stroke="#00f" stroke-miterlimit="10" fill="none"/><path d="M242.273 164.195l1.852 8.7" stroke-width="1.2" stroke="#000" stroke-miterlimit="10" fill="none"/><path d="M236.695 158.105l1.485 6.96" stroke-width="1.2" stroke="#00f" stroke-miterlimit="10" fill="none"/><path d="M238.18 165.066l1.48 6.96" stroke-width="1.2" stroke="#000" stroke-miterlimit="10" fill="none"/><path d="M237.422 149.992h7v11h-7zm0 0" fill="#fff"/><use xlink:href="#b" x="237.422" y="158.655" fill="#00f"/><path d="M244.125 172.895l-6.61 5.953" stroke-width="1.2" stroke="#000" stroke-miterlimit="10" fill="none"/><path d="M237.516 178.848l-6.61 5.957" stroke-width="1.2" stroke="#00f" stroke-miterlimit="10" fill="none"/><path d="M244.125 172.895l8.46 2.746" stroke-width="1.2" stroke="#000" stroke-miterlimit="10" fill="none"/><path d="M252.586 175.64l8.46 2.747M230.906 184.805l-8.46-2.75" stroke-width="1.2" stroke="#00f" stroke-miterlimit="10" fill="none"/><path d="M222.445 182.055l-8.46-2.746" stroke-width="1.2" stroke="#000" stroke-miterlimit="10" fill="none"/><path d="M230.508 180.273l-6.77-2.2" stroke-width="1.2" stroke="#00f" stroke-miterlimit="10" fill="none"/><path d="M223.738 178.074l-6.77-2.195" stroke-width="1.2" stroke="#000" stroke-miterlimit="10" fill="none"/><path d="M227.906 179.305h7v11h-7zm0 0" fill="#fff"/><use xlink:href="#b" x="227.906" y="187.968" fill="#00f"/><path d="M261.047 178.387l1.85 8.703" stroke-width="1.2" stroke="#00f" stroke-miterlimit="10" fill="none"/><path d="M262.898 187.09l1.852 8.7" stroke-width="1.2" stroke="#000" stroke-miterlimit="10" fill="none"/><path d="M254.047 172.887h14v11h-14zm0 0" fill="#fff"/><g fill="#00f"><use xlink:href="#b" x="254.047" y="181.55"/><use xlink:href="#c" x="261.024" y="181.55"/></g><path d="M219.797 132.598l-16.922-5.493M216.813 136.03l-13.54-4.393M169.03 116.117l-16.92-5.492M169.03 116.117l13.22-11.906M152.11 110.625l-13.22 11.906M153.59 114.926l-10.578 9.527M102.938 175.66l-13.22 11.906M89.72 187.566l-16.923-5.492M89.32 183.035l-13.54-4.394" stroke-width="1.2" stroke="#000" stroke-miterlimit="10" fill="none"/></g></svg>
